public/images/dev42.svg

<svg width="100" height="100" viewBox="0 0 100 100" fill="none" xmlns="http://www.w3.org/2000/svg">
<path d="M4.36 79.9602C3 79.9602 1.92 79.5621 1.16 78.786C0.38 78.0098 0 76.9152 0 75.522C0 74.109 0.38 72.9745 1.08 72.1585C1.78 71.3426 2.76 70.9445 4.02 70.9445C5.16 70.9445 6.08 71.2829 6.76 71.9794C7.44 72.676 7.78 73.6313 7.78 74.8652V75.8802H1.92C1.96 76.7161 2.2 77.353 2.6 77.8307C3 78.3083 3.64 78.5073 4.42 78.5073C4.92 78.5073 5.44 78.4675 5.88 78.368C6.32 78.2685 6.8 78.0894 7.34 77.8904V79.4029C6.9 79.6019 6.42 79.7811 5.96 79.8806C5.48 80 4.94 79.9602 4.36 79.9602ZM3.98 72.3576C3.38 72.3576 2.9 72.5566 2.56 72.9347C2.22 73.3129 1.98 73.8502 1.92 74.5866H5.9C5.9 73.89 5.74 73.3129 5.4 72.9347C5.06 72.5765 4.6 72.3576 3.98 72.3576Z" fill="black"/>
<path d="M11.72 79.8209H9.85999V67.5612H11.72V79.8209Z" fill="black"/>
<path d="M19.86 79.8209L19.48 78.6068H19.42C19.02 79.1442 18.58 79.5223 18.14 79.6815C17.7 79.8408 17.16 79.9801 16.48 79.9801C15.64 79.9801 14.96 79.7412 14.46 79.2835C13.96 78.8058 13.76 78.169 13.76 77.3331C13.76 76.4176 14.1 75.7608 14.78 75.323C15.46 74.8851 16.46 74.6264 17.86 74.5866L19.38 74.5468V74.0691C19.38 73.492 19.24 73.0939 18.98 72.8153C18.72 72.5367 18.3 72.4173 17.76 72.4173C17.32 72.4173 16.88 72.477 16.48 72.6163C16.08 72.7556 15.66 72.9148 15.3 73.0939L14.7 71.7804C15.18 71.5416 15.68 71.3425 16.26 71.2032C16.84 71.0639 17.34 71.0042 17.84 71.0042C18.96 71.0042 19.8 71.243 20.38 71.7406C20.96 72.2381 21.22 72.9944 21.22 74.0293V79.8209H19.86ZM17.1 78.5471C17.78 78.5471 18.32 78.3481 18.72 77.97C19.12 77.5918 19.32 77.0545 19.32 76.3977V75.6613L18.2 75.7011C17.32 75.7409 16.68 75.8603 16.28 76.139C15.88 76.4176 15.68 76.8156 15.68 77.353C15.68 77.751 15.78 78.0496 16.02 78.2685C16.24 78.4476 16.62 78.5471 17.1 78.5471Z" fill="black"/>
<path d="M29.66 77.3331C29.66 78.169 29.36 78.8457 28.72 79.2835C28.08 79.7214 27.2 79.9602 26.06 79.9602C24.88 79.9602 23.96 79.801 23.26 79.4228V77.8108C24.28 78.2884 25.26 78.5073 26.14 78.5073C27.28 78.5073 27.86 78.169 27.86 77.4724C27.86 77.2336 27.8 77.0744 27.66 76.9351C27.52 76.7958 27.32 76.6365 27.02 76.4574C26.72 76.2982 26.32 76.1191 25.8 75.9201C24.78 75.522 24.12 75.1439 23.74 74.7458C23.36 74.3478 23.2 73.8303 23.2 73.2333C23.2 72.4969 23.5 71.9197 24.12 71.4819C24.72 71.044 25.54 70.8848 26.58 70.8848C27.6 70.8848 28.58 71.0838 29.48 71.5217L28.88 72.8949C27.94 72.4969 27.16 72.3178 26.48 72.3178C25.5 72.3178 25 72.5964 25 73.1537C25 73.4323 25.14 73.6512 25.38 73.8502C25.62 74.0493 26.2 74.2881 27.06 74.6264C27.76 74.9051 28.32 75.1638 28.64 75.4026C28.98 75.6414 29.22 75.9002 29.38 76.2186C29.6 76.5768 29.66 76.9152 29.66 77.3331Z" fill="black"/>
<path d="M34.94 78.4874C35.38 78.4874 35.86 78.4277 36.3 78.2884V79.6616C36.1 79.7611 35.82 79.8208 35.48 79.9005C35.14 79.9602 34.8 80 34.46 80C32.7 80 31.82 79.0646 31.82 77.2336V72.5367H30.64V71.7207L31.92 71.044L32.56 69.1931H33.7V71.1435H36.2V72.5566H33.7V77.2336C33.7 77.6714 33.8 78.0098 34.04 78.2088C34.3 78.4277 34.6 78.4874 34.94 78.4874Z" fill="black"/>
<path d="M37.94 68.7951C37.94 68.4568 38.04 68.2179 38.22 68.0189C38.38 67.8199 38.66 67.7403 39 67.7403C39.34 67.7403 39.58 67.8398 39.78 68.0189C39.98 68.1781 40.06 68.4568 40.06 68.7951C40.06 69.0936 39.96 69.3723 39.78 69.5315C39.62 69.6907 39.34 69.8101 39 69.8101C38.66 69.8101 38.4 69.7106 38.22 69.5315C38.04 69.3723 37.94 69.1135 37.94 68.7951ZM39.94 79.8209H38.08V71.1038H39.94V79.8209Z" fill="black"/>
<path d="M46.12 79.9602C44.8 79.9602 43.78 79.582 43.12 78.8258C42.44 78.0496 42.08 76.9351 42.08 75.5021C42.08 74.0294 42.46 72.9148 43.16 72.0988C43.86 71.2829 44.92 70.9246 46.26 70.9246C47.18 70.9246 48.02 71.0838 48.76 71.4222L48.18 72.8949C47.4 72.5964 46.76 72.4173 46.22 72.4173C44.7 72.4173 43.96 73.4323 43.96 75.4026C43.96 76.3778 44.16 77.1142 44.54 77.6117C44.92 78.1093 45.48 78.3481 46.2 78.3481C47.04 78.3481 47.82 78.1491 48.56 77.7511V79.3631C48.22 79.5621 47.88 79.7015 47.48 79.7612C47.06 79.8607 46.66 79.9602 46.12 79.9602Z" fill="black"/>
<path d="M56.48 77.3331C56.48 78.169 56.18 78.8457 55.54 79.2835C54.9 79.7214 54.02 79.9602 52.88 79.9602C51.7 79.9602 50.78 79.801 50.08 79.4228V77.8108C51.1 78.2884 52.08 78.5073 52.96 78.5073C54.1 78.5073 54.68 78.169 54.68 77.4724C54.68 77.2336 54.62 77.0744 54.48 76.9351C54.34 76.7958 54.14 76.6365 53.84 76.4574C53.54 76.2982 53.14 76.1191 52.62 75.9201C51.6 75.522 50.94 75.1439 50.56 74.7458C50.18 74.3478 50.02 73.8303 50.02 73.2333C50.02 72.4969 50.32 71.9197 50.94 71.4819C51.54 71.044 52.36 70.8848 53.4 70.8848C54.42 70.8848 55.4 71.0838 56.3 71.5217L55.7 72.8949C54.76 72.4969 53.98 72.3178 53.3 72.3178C52.32 72.3178 51.82 72.5964 51.82 73.1537C51.82 73.4323 51.96 73.6512 52.2 73.8502C52.44 74.0493 53.02 74.2881 53.88 74.6264C54.58 74.9051 55.14 75.1638 55.46 75.4026C55.78 75.6414 56.04 75.9002 56.2 76.2186C56.42 76.5768 56.48 76.9152 56.48 77.3331Z" fill="black"/>
<path d="M62.34 79.9602C60.98 79.9602 59.9 79.5621 59.14 78.786C58.36 78.0098 58 76.8953 58 75.522C58 74.109 58.38 72.9745 59.08 72.1585C59.78 71.3426 60.76 70.9445 62.02 70.9445C63.16 70.9445 64.08 71.2829 64.76 71.9794C65.44 72.676 65.78 73.6313 65.78 74.8652V75.8802H59.94C59.98 76.7161 60.22 77.353 60.62 77.8307C61.02 78.3083 61.66 78.5073 62.44 78.5073C62.94 78.5073 63.46 78.4675 63.9 78.368C64.34 78.2685 64.82 78.0894 65.36 77.8904V79.4029C64.92 79.6019 64.44 79.7811 63.98 79.8806C63.44 80 62.94 79.9602 62.34 79.9602ZM62 72.3576C61.4 72.3576 60.92 72.5566 60.58 72.9347C60.24 73.3129 60 73.8502 59.94 74.5866H63.92C63.92 73.89 63.76 73.3129 63.42 72.9347C63.08 72.5765 62.56 72.3576 62 72.3576Z" fill="black"/>
<path d="M73.32 79.8209L72.94 78.6068H72.88C72.48 79.1442 72.04 79.5223 71.6 79.6815C71.16 79.8408 70.62 79.9801 69.94 79.9801C69.1 79.9801 68.42 79.7412 67.92 79.2835C67.42 78.8058 67.22 78.169 67.22 77.3331C67.22 76.4176 67.56 75.7608 68.24 75.323C68.92 74.8851 69.92 74.6264 71.32 74.5866L72.84 74.5468V74.0691C72.84 73.492 72.7 73.0939 72.44 72.8153C72.18 72.5367 71.76 72.4173 71.22 72.4173C70.78 72.4173 70.34 72.477 69.94 72.6163C69.54 72.7556 69.12 72.9148 68.76 73.0939L68.16 71.7804C68.64 71.5416 69.14 71.3425 69.72 71.2032C70.3 71.0639 70.8 71.0042 71.3 71.0042C72.42 71.0042 73.26 71.243 73.84 71.7406C74.42 72.2381 74.68 72.9944 74.68 74.0293V79.8209H73.32ZM70.54 78.5471C71.22 78.5471 71.76 78.3481 72.16 77.97C72.56 77.5918 72.76 77.0545 72.76 76.3977V75.6613L71.64 75.7011C70.76 75.7409 70.12 75.8603 69.72 76.139C69.32 76.4176 69.12 76.8156 69.12 77.353C69.12 77.751 69.22 78.0496 69.46 78.2685C69.7 78.4874 70.1 78.5471 70.54 78.5471Z" fill="black"/>
<path d="M81.68 70.9644C82.06 70.9644 82.36 71.0042 82.6 71.0241L82.44 72.7357C82.16 72.676 81.9 72.6362 81.62 72.6362C80.88 72.6362 80.26 72.875 79.8 73.3726C79.32 73.8701 79.1 74.4871 79.1 75.2633V79.8408H77.24V71.1236H78.7L78.94 72.676H79.04C79.34 72.1784 79.72 71.7406 80.18 71.4222C80.64 71.1236 81.14 70.9644 81.68 70.9644Z" fill="black"/>
<path d="M87.78 79.9602C86.46 79.9602 85.44 79.582 84.78 78.8258C84.1 78.0496 83.74 76.9351 83.74 75.5021C83.74 74.0294 84.12 72.9148 84.82 72.0988C85.52 71.2829 86.58 70.9246 87.92 70.9246C88.84 70.9246 89.68 71.0838 90.42 71.4222L89.84 72.8949C89.06 72.5964 88.42 72.4173 87.88 72.4173C86.36 72.4173 85.62 73.4323 85.62 75.4026C85.62 76.3778 85.82 77.1142 86.2 77.6117C86.58 78.1093 87.14 78.3481 87.86 78.3481C88.7 78.3481 89.48 78.1491 90.22 77.7511V79.3631C89.88 79.5621 89.54 79.7015 89.14 79.7612C88.72 79.8607 88.32 79.9602 87.78 79.9602Z" fill="black"/>
<path d="M99.96 79.8209H98.1V74.4473C98.1 73.7706 97.96 73.2731 97.7 72.9347C97.42 72.5964 97 72.4372 96.42 72.4372C95.64 72.4372 95.06 72.676 94.7 73.1338C94.34 73.5915 94.16 74.3876 94.16 75.4623V79.8408H92.3V67.5612H94.16V70.6858C94.16 71.1833 94.12 71.7207 94.06 72.2979H94.2C94.48 71.8998 94.8 71.5615 95.24 71.3227C95.68 71.0838 96.22 70.9843 96.82 70.9843C98.94 70.9843 100 72.059 100 74.1687V79.8209H99.96Z" fill="black"/>
<path d="M59.88 33.9664H48.66C48.72 34.2251 48.82 34.5038 48.88 34.7227C49.26 35.9964 49.48 37.3498 49.58 38.723C49.64 39.2604 49.64 39.8375 49.64 40.3749C49.64 40.9122 49.64 41.4894 49.58 42.0268C49.48 43.4199 49.26 44.7534 48.88 46.0271C48.82 46.2858 48.72 46.5644 48.66 46.7834H59.88C63.42 46.7834 66.28 43.8976 66.28 40.3749C66.28 36.8522 63.42 33.9664 59.88 33.9664Z" fill="#00A9E5"/>
<path d="M49.58 42.0268C49.64 41.4894 49.64 40.9122 49.64 40.3749C49.64 39.8375 49.64 39.2604 49.58 38.723C49.48 37.3299 49.26 35.9964 48.88 34.7227C48.82 34.464 48.72 34.1853 48.66 33.9664H31.32C30.68 35.9964 30.36 38.1259 30.36 40.3749C30.36 42.6238 30.68 44.7534 31.32 46.7834H48.66C48.72 46.5246 48.82 46.246 48.88 46.0271C49.24 44.7534 49.46 43.4199 49.58 42.0268Z" fill="#353535"/>
<path d="M61.82 48.9328H47.86C47.44 49.8881 46.94 50.8036 46.4 51.6594C45.6 52.9928 44.62 54.1671 43.56 55.3015C43.18 55.6796 42.8 55.9981 42.44 56.3762C41.68 57.0728 40.82 57.6499 39.96 58.247C43.34 60.4959 47.42 61.7697 51.78 61.7697C59.24 61.7697 65.8 57.9684 69.66 52.2565C67.66 50.2065 64.88 48.9328 61.82 48.9328Z" fill="#00BFB3"/>
<path d="M46.4 51.6594C46.94 50.8036 47.42 49.8881 47.86 48.9328H32.12C33.78 52.7341 36.52 55.9782 40.02 58.2271C40.88 57.63 41.68 57.0529 42.5 56.3563C42.88 56.0379 43.26 55.6597 43.62 55.2816C44.62 54.2268 45.6 52.9928 46.4 51.6594Z" fill="#019B8F"/>
<path d="M43.56 25.4682C43.18 25.09 42.8 24.7716 42.44 24.3935C41.68 23.6969 40.82 23.1197 39.96 22.5227C36.52 24.7716 33.78 28.0356 32.06 31.817H47.8C47.38 30.8617 46.88 29.9462 46.34 29.0904C45.6 27.7569 44.62 26.5429 43.56 25.4682Z" fill="#F9B110"/>
<path d="M51.78 19C47.42 19 43.34 20.2737 39.96 22.5227C40.82 23.1197 41.62 23.6969 42.44 24.3935C42.82 24.7119 43.2 25.09 43.56 25.4682C44.62 26.5827 45.6 27.7569 46.4 29.1103C46.94 29.9661 47.42 30.8816 47.86 31.8369H61.82C64.88 31.8369 67.68 30.5631 69.66 28.5331C65.78 22.8013 59.24 19 51.78 19Z" fill="#FED10A"/>
</svg>

<svg xmlns="http://www.w3.org/2000/svg" width="100" height="100" fill="none"><path fill="#000" d="M4.36 79.96c-1.36 0-2.44-.398-3.2-1.174C.38 78.01 0 76.916 0 75.522c0-1.413.38-2.547 1.08-3.364.7-.815 1.68-1.213 2.94-1.213 1.14 0 2.06.338 2.74 1.034.68.697 1.02 1.652 1.02 2.886v1.015H1.92c.04.836.28 1.473.68 1.95.4.478 1.04.677 1.82.677.5 0 1.02-.04 1.46-.139.44-.1.92-.279 1.46-.478v1.513c-.44.199-.92.378-1.38.478-.48.119-1.02.08-1.6.08m-.38-7.602c-.6 0-1.08.199-1.42.577s-.58.915-.64 1.652H5.9c0-.697-.16-1.274-.5-1.652-.34-.359-.8-.577-1.42-.577M11.72 79.82H9.86V67.562h1.86zM19.86 79.82l-.38-1.213h-.06c-.4.537-.84.915-1.28 1.075s-.98.298-1.66.298c-.84 0-1.52-.239-2.02-.697-.5-.477-.7-1.114-.7-1.95 0-.915.34-1.572 1.02-2.01s1.68-.697 3.08-.736l1.52-.04v-.478c0-.577-.14-.975-.4-1.254-.26-.278-.68-.398-1.22-.398-.44 0-.88.06-1.28.2-.4.139-.82.298-1.18.477l-.6-1.314c.48-.238.98-.437 1.56-.577s1.08-.199 1.58-.199c1.12 0 1.96.239 2.54.737.58.497.84 1.253.84 2.288v5.792zm-2.76-1.273c.68 0 1.22-.199 1.62-.577s.6-.915.6-1.572v-.737l-1.12.04c-.88.04-1.52.16-1.92.438-.4.279-.6.677-.6 1.214 0 .398.1.697.34.916.22.179.6.278 1.08.278M29.66 77.333c0 .836-.3 1.513-.94 1.95s-1.52.677-2.66.677c-1.18 0-2.1-.159-2.8-.537V77.81c1.02.477 2 .696 2.88.696 1.14 0 1.72-.338 1.72-1.035 0-.238-.06-.398-.2-.537-.14-.14-.34-.299-.64-.478-.3-.159-.7-.338-1.22-.537-1.02-.398-1.68-.776-2.06-1.174s-.54-.916-.54-1.513c0-.736.3-1.313.92-1.751.6-.438 1.42-.597 2.46-.597 1.02 0 2 .199 2.9.637l-.6 1.373c-.94-.398-1.72-.577-2.4-.577-.98 0-1.48.278-1.48.836 0 .278.14.497.38.696.24.2.82.438 1.68.776.7.28 1.26.538 1.58.777.34.238.58.497.74.816.22.358.28.696.28 1.114M34.94 78.487c.44 0 .92-.06 1.36-.199v1.374c-.2.1-.48.159-.82.238-.34.06-.68.1-1.02.1-1.76 0-2.64-.935-2.64-2.766v-4.697h-1.18v-.816l1.28-.677.64-1.85h1.14v1.95h2.5v1.413h-2.5v4.677c0 .437.1.776.34.975.26.219.56.278.9.278M37.94 68.795c0-.338.1-.577.28-.776.16-.2.44-.279.78-.279s.58.1.78.279c.2.16.28.438.28.776 0 .299-.1.577-.28.736-.16.16-.44.28-.78.28s-.6-.1-.78-.28c-.18-.159-.28-.418-.28-.736m2 11.026h-1.86v-8.717h1.86zM46.12 79.96c-1.32 0-2.34-.378-3-1.134-.68-.776-1.04-1.89-1.04-3.324 0-1.473.38-2.587 1.08-3.403s1.76-1.174 3.1-1.174c.92 0 1.76.159 2.5.497l-.58 1.473c-.78-.299-1.42-.478-1.96-.478-1.52 0-2.26 1.015-2.26 2.986 0 .975.2 1.711.58 2.209.38.497.94.736 1.66.736.84 0 1.62-.199 2.36-.597v1.612c-.34.2-.68.338-1.08.398-.42.1-.82.2-1.36.2M56.48 77.333c0 .836-.3 1.513-.94 1.95s-1.52.677-2.66.677c-1.18 0-2.1-.159-2.8-.537V77.81c1.02.477 2 .696 2.88.696 1.14 0 1.72-.338 1.72-1.035 0-.238-.06-.398-.2-.537-.14-.14-.34-.299-.64-.478-.3-.159-.7-.338-1.22-.537-1.02-.398-1.68-.776-2.06-1.174s-.54-.916-.54-1.513c0-.736.3-1.313.92-1.751.6-.438 1.42-.597 2.46-.597 1.02 0 2 .199 2.9.637l-.6 1.373c-.94-.398-1.72-.577-2.4-.577-.98 0-1.48.278-1.48.836 0 .278.14.497.38.696.24.2.82.438 1.68.776.7.28 1.26.538 1.58.777.32.238.58.497.74.816.22.358.28.696.28 1.114M62.34 79.96c-1.36 0-2.44-.398-3.2-1.174-.78-.776-1.14-1.89-1.14-3.264 0-1.413.38-2.547 1.08-3.364.7-.815 1.68-1.213 2.94-1.213 1.14 0 2.06.338 2.74 1.034.68.697 1.02 1.652 1.02 2.886v1.015h-5.84c.04.836.28 1.473.68 1.95.4.478 1.04.677 1.82.677.5 0 1.02-.04 1.46-.139.44-.1.92-.279 1.46-.478v1.513c-.44.199-.92.378-1.38.478-.54.119-1.04.08-1.64.08M62 72.358c-.6 0-1.08.199-1.42.577s-.58.915-.64 1.652h3.98c0-.697-.16-1.274-.5-1.652-.34-.359-.86-.577-1.42-.577M73.32 79.82l-.38-1.213h-.06c-.4.537-.84.915-1.28 1.075s-.98.298-1.66.298c-.84 0-1.52-.239-2.02-.697-.5-.477-.7-1.114-.7-1.95 0-.915.34-1.572 1.02-2.01s1.68-.697 3.08-.736l1.52-.04v-.478c0-.577-.14-.975-.4-1.254-.26-.278-.68-.398-1.22-.398-.44 0-.88.06-1.28.2-.4.139-.82.298-1.18.477l-.6-1.314c.48-.238.98-.437 1.56-.577s1.08-.199 1.58-.199c1.12 0 1.96.239 2.54.737.58.497.84 1.253.84 2.288v5.792zm-2.78-1.273c.68 0 1.22-.199 1.62-.577s.6-.915.6-1.572v-.737l-1.12.04c-.88.04-1.52.16-1.92.438-.4.279-.6.677-.6 1.214 0 .398.1.697.34.916.24.218.64.278 1.08.278M81.68 70.964c.38 0 .68.04.92.06l-.16 1.712c-.28-.06-.54-.1-.82-.1-.74 0-1.36.239-1.82.737-.48.497-.7 1.114-.7 1.89v4.578h-1.86v-8.717h1.46l.24 1.552h.1c.3-.498.68-.935 1.14-1.254.46-.298.96-.458 1.5-.458M87.78 79.96c-1.32 0-2.34-.378-3-1.134-.68-.776-1.04-1.89-1.04-3.324 0-1.473.38-2.587 1.08-3.403s1.76-1.174 3.1-1.174c.92 0 1.76.159 2.5.497l-.58 1.473c-.78-.299-1.42-.478-1.96-.478-1.52 0-2.26 1.015-2.26 2.986 0 .975.2 1.711.58 2.209.38.497.94.736 1.66.736.84 0 1.62-.199 2.36-.597v1.612c-.34.2-.68.338-1.08.398-.42.1-.82.2-1.36.2M99.96 79.82H98.1v-5.373c0-.676-.14-1.174-.4-1.512-.28-.339-.7-.498-1.28-.498-.78 0-1.36.239-1.72.697s-.54 1.254-.54 2.328v4.379H92.3V67.56h1.86v3.125c0 .497-.04 1.035-.1 1.612h.14c.28-.398.6-.737 1.04-.975.44-.24.98-.339 1.58-.339 2.12 0 3.18 1.075 3.18 3.185v5.652z"/><path fill="#00A9E5" d="M59.88 33.966H48.66c.06.26.16.538.22.757.38 1.273.6 2.627.7 4 .06.537.06 1.114.06 1.652s0 1.114-.06 1.652c-.1 1.393-.32 2.726-.7 4-.06.259-.16.537-.22.756h11.22c3.54 0 6.4-2.885 6.4-6.408s-2.86-6.409-6.4-6.409"/><path fill="#353535" d="M49.58 42.027c.06-.538.06-1.115.06-1.652 0-.538 0-1.115-.06-1.652-.1-1.393-.32-2.727-.7-4-.06-.259-.16-.538-.22-.757H31.32c-.64 2.03-.96 4.16-.96 6.409s.32 4.378.96 6.408h17.34c.06-.258.16-.537.22-.756.36-1.274.58-2.607.7-4"/><path fill="#00BFB3" d="M61.82 48.933H47.86c-.42.955-.92 1.87-1.46 2.726-.8 1.334-1.78 2.508-2.84 3.642-.38.379-.76.697-1.12 1.075-.76.697-1.62 1.274-2.48 1.871 3.38 2.249 7.46 3.523 11.82 3.523 7.46 0 14.02-3.802 17.88-9.513-2-2.05-4.78-3.324-7.84-3.324"/><path fill="#019B8F" d="M46.4 51.66a24 24 0 0 0 1.46-2.727H32.12a21.05 21.05 0 0 0 7.9 9.294c.86-.597 1.66-1.174 2.48-1.87.38-.32.76-.697 1.12-1.075 1-1.055 1.98-2.29 2.78-3.623"/><path fill="#F9B110" d="M43.56 25.468c-.38-.378-.76-.696-1.12-1.075-.76-.696-1.62-1.273-2.48-1.87-3.44 2.249-6.18 5.513-7.9 9.294H47.8c-.42-.955-.92-1.87-1.46-2.727-.74-1.333-1.72-2.547-2.78-3.622"/><path fill="#FED10A" d="M51.78 19c-4.36 0-8.44 1.274-11.82 3.523.86.597 1.66 1.174 2.48 1.87.38.319.76.697 1.12 1.075 1.06 1.115 2.04 2.289 2.84 3.642a24 24 0 0 1 1.46 2.727h13.96c3.06 0 5.86-1.274 7.84-3.304C65.78 22.801 59.24 19 51.78 19"/></svg>
